!!!COM: Louise Reichardt
!!!CNT: Deutsch
!!!TXO: Deutsch
!!!OTL: Der Spinnerin Nachtlied
!!!LYR: Brentano
!!!OPR: 
!!!OPS: No opus information available
!!!ONM: No. 13
!!!ENC: Ben Fuhrman
!!!YOR: Louise Reichardt: Songs
!!!YOR: New York, Da Capo Press, 1981
!!!ODT: 1811
!!NB: Only vocal melody encoded.
!!NB: First instance of melodic material only encoded.
!!created: 2/18/10 12:28PM
!!proofed and posted: 2/18/10 12:28PM
**kern	**silbe
*clef G2	*
*k[b-e-a-d-]	*
*M2/4	*
*MM[Sehrherzlich]	*
!! Note that I am using the text from "Zwolfe Gesange" for this song as the version in "Louise Reichardt: Songs" contains numerous mistakes, coupled with an unreadable font. The melody and additional verses are the same (despite the spelling errors). -Fuhrman
{8c	{Es
=1	=1
8f	sang
8f	out
8a-	lan-
8a-	-gen
=2	=2
8g	Jah-
8g	-ren
8r	.
8b-	wohl
=3	=3
8a-	auch
8f	die
8b-	Nach-
8a-	-ti-
=4	=4
4.g}	-gall!}
{8g	{das
=5	=5
8a-	war
8a-	wohl
8dd-	su2s-
8cc	-ser
=6	=6
4.bn	Schall,
8cc	da
=7	=7
16a-	mir
16g	zu-
16a-	-sam-
16b-	-men
(8a-	wa-
8g)	|
=8	=8
4.f}	-ren.}
8r	.
==	==
*-	*-
